X: 36014
T: Sawdl Y Fuwch
R: jig
M: 6/8
K: Dmajor
A|:d2 d A2 A|F A2 A2 A|d2 d F2 G|A3 A2 G|
d2 d Bcd|A2 d e2 e|d4 d2|cd z4|
e2 e c2 d|e2 e2 de|f2 f d2 e|f2 f2 fe|
dcB A2 A|BAG F2 A|Bcd e2 c|d3 d3|
d d2 cde|fee c B2|A d2 fec|B3 A2 A|
dcB A2 A|BAG F2 A|Bcd e2 c|d3 d2:|

